svg/fluentui-system-icons/ic_fluent_checkmark_underline_circle_16_filled.svg

<svg width="16" height="16" viewBox="0 0 16 16" fill="none" xmlns="http://www.w3.org/2000/svg">
<path d="M8 14C11.3137 14 14 11.3137 14 8C14 4.68629 11.3137 2 8 2C4.68629 2 2 4.68629 2 8C2 11.3137 4.68629 14 8 14ZM10.8558 5.14907C11.048 5.34783 11.0481 5.67009 10.8558 5.86885L7.97222 8.85093C7.87992 8.94638 7.75474 9 7.6242 9C7.49367 9 7.36848 8.94638 7.27618 8.85093L6.14415 7.68025C5.95195 7.48148 5.95195 7.15922 6.14416 6.96046C6.33636 6.7617 6.64799 6.7617 6.84019 6.96047L7.6242 7.77125L10.1598 5.14908C10.352 4.95031 10.6636 4.95031 10.8558 5.14907ZM6.5 10H9.49826C9.7744 10 9.99826 10.2239 9.99826 10.5C9.99826 10.7761 9.7744 11 9.49826 11H6.5C6.22386 11 6 10.7761 6 10.5C6 10.2239 6.22386 10 6.5 10Z" fill="#212121"/>
</svg>

<svg xmlns="http://www.w3.org/2000/svg" width="16" height="16"><path d="M8 14A6 6 0 1 0 8 2a6 6 0 0 0 0 12Zm2.856-8.85a.521.521 0 0 1 0 .719L7.972 8.85a.484.484 0 0 1-.696 0L6.144 7.68a.521.521 0 0 1 0-.72.48.48 0 0 1 .696 0l.784.81 2.536-2.62a.48.48 0 0 1 .696 0ZM6.5 10h2.998a.5.5 0 0 1 0 1H6.5a.5.5 0 0 1 0-1Z"/></svg>
